website/static/img/dapps.svg

<?xml version="1.0" encoding="UTF-8"?>
<svg width="77px" height="50px" viewBox="0 0 77 50" version="1.1" xmlns="http://www.w3.org/2000/svg" xmlns:xlink="http://www.w3.org/1999/xlink">
    <!-- Generator: Sketch 53.2 (72643) - https://sketchapp.com -->
    <title>Group 14</title>
    <desc>Created with Sketch.</desc>
    <defs>
        <polygon id="path-1" points="0.3491 0.0003 50.3491 0.0003 50.3491 50 0.3491 50"></polygon>
        <polygon id="path-3" points="0.6875 0.1902 10.668 0.1902 10.668 33.8112 0.6875 33.8112"></polygon>
        <polygon id="path-5" points="0 0.1895 9.9819 0.1895 9.9819 33.8105 0 33.8105"></polygon>
    </defs>
    <g id="Page-1" stroke="none" stroke-width="1" fill="none" fill-rule="evenodd">
        <g id="Artboard" transform="translate(-662.000000, -936.000000)">
            <g id="Group-14" transform="translate(662.000000, 936.000000)">
                <path d="M32.5835,23.7778 C31.3375,23.8178 30.3195,22.7998 30.3595,21.5548 C30.3955,20.4268 31.3135,19.5088 32.4415,19.4728 C33.6875,19.4328 34.7045,20.4508 34.6655,21.6958 C34.6285,22.8228 33.7105,23.7418 32.5835,23.7778 M41.5935,22.5308 C41.6225,22.2328 41.6385,21.9308 41.6385,21.6258 C41.6385,21.3068 41.6215,20.9928 41.5895,20.6828 C41.5595,20.3888 41.2825,20.1848 40.9905,20.2358 C39.6855,20.4648 38.3185,19.8738 37.6175,18.6598 C36.9185,17.4488 37.0875,15.9738 37.9335,14.9578 C38.1215,14.7308 38.0815,14.3908 37.8425,14.2178 C37.3455,13.8598 36.8125,13.5508 36.2465,13.2978 C35.9785,13.1758 35.6635,13.3118 35.5605,13.5898 C35.1035,14.8288 33.9115,15.7128 32.5125,15.7128 C31.1145,15.7128 29.9225,14.8288 29.4645,13.5898 C29.3625,13.3118 29.0475,13.1758 28.7785,13.2978 C28.2135,13.5508 27.6795,13.8598 27.1835,14.2178 C26.9425,14.3908 26.9035,14.7308 27.0935,14.9578 C27.9375,15.9738 28.1065,17.4488 27.4075,18.6598 C26.7065,19.8738 25.3395,20.4648 24.0345,20.2358 C23.7425,20.1848 23.4665,20.3888 23.4365,20.6828 C23.4035,20.9928 23.3875,21.3068 23.3875,21.6258 C23.3875,21.9308 23.4025,22.2328 23.4325,22.5308 C23.4615,22.8258 23.7395,23.0298 24.0315,22.9788 C25.3375,22.7488 26.7065,23.3398 27.4075,24.5548 C28.1105,25.7738 27.9355,27.2588 27.0755,28.2758 C26.8855,28.5028 26.9235,28.8448 27.1625,29.0188 C27.6615,29.3798 28.1985,29.6918 28.7665,29.9478 C29.0375,30.0698 29.3545,29.9318 29.4545,29.6518 C29.9045,28.3988 31.1045,27.5018 32.5125,27.5018 C33.9215,27.5018 35.1205,28.3988 35.5705,29.6518 C35.6715,29.9318 35.9875,30.0698 36.2595,29.9478 C36.8265,29.6918 37.3635,29.3798 37.8625,29.0188 C38.1025,28.8448 38.1405,28.5028 37.9485,28.2758 C37.0905,27.2588 36.9135,25.7738 37.6175,24.5548 C38.3195,23.3398 39.6875,22.7488 40.9935,22.9788 C41.2865,23.0298 41.5635,22.8258 41.5935,22.5308" id="Fill-1" fill="#1F374F"></path>
                <path d="M47.1616,32.5474 C46.3196,32.5744 45.6326,31.8864 45.6596,31.0454 C45.6836,30.2834 46.3046,29.6624 47.0656,29.6384 C47.9076,29.6114 48.5956,30.2994 48.5686,31.1404 C48.5446,31.9024 47.9236,32.5234 47.1616,32.5474 M52.8436,30.1534 C51.9616,30.3084 51.0376,29.9094 50.5636,29.0894 C50.0916,28.2704 50.2066,27.2744 50.7766,26.5874 C50.9046,26.4334 50.8786,26.2034 50.7166,26.0874 C50.3806,25.8454 50.0186,25.6364 49.6386,25.4644 C49.4556,25.3834 49.2436,25.4754 49.1746,25.6624 C48.8646,26.4994 48.0586,27.0974 47.1146,27.0974 C46.1696,27.0974 45.3636,26.4994 45.0546,25.6624 C44.9856,25.4754 44.7726,25.3834 44.5916,25.4644 C44.2086,25.6364 43.8486,25.8454 43.5126,26.0874 C43.3506,26.2034 43.3236,26.4334 43.4516,26.5874 C44.0226,27.2744 44.1376,28.2704 43.6636,29.0894 C43.1906,29.9094 42.2666,30.3084 41.3856,30.1534 C41.1876,30.1194 41.0016,30.2564 40.9796,30.4564 C40.9586,30.6654 40.9476,30.8784 40.9476,31.0924 C40.9476,31.2994 40.9586,31.5034 40.9776,31.7044 C40.9976,31.9044 41.1846,32.0424 41.3836,32.0074 C42.2656,31.8524 43.1906,32.2514 43.6636,33.0724 C44.1406,33.8964 44.0206,34.9004 43.4406,35.5874 C43.3106,35.7404 43.3376,35.9714 43.4996,36.0894 C43.8366,36.3334 44.1986,36.5444 44.5826,36.7164 C44.7656,36.7994 44.9796,36.7064 45.0486,36.5174 C45.3516,35.6704 46.1626,35.0644 47.1146,35.0644 C48.0656,35.0644 48.8766,35.6704 49.1816,36.5174 C49.2486,36.7064 49.4626,36.7994 49.6456,36.7164 C50.0296,36.5444 50.3916,36.3334 50.7296,36.0894 C50.8916,35.9714 50.9176,35.7404 50.7886,35.5874 C50.2076,34.9004 50.0886,33.8964 50.5636,33.0724 C51.0386,32.2514 51.9626,31.8524 52.8456,32.0074 C53.0426,32.0424 53.2306,31.9044 53.2506,31.7044 C53.2706,31.5034 53.2806,31.2994 53.2806,31.0924 C53.2806,30.8784 53.2686,30.6654 53.2476,30.4564 C53.2276,30.2564 53.0406,30.1194 52.8436,30.1534" id="Fill-3" fill="#1F374F"></path>
                <g id="Group-7" transform="translate(13.000000, 0.000000)">
                    <mask id="mask-2" fill="white">
                        <use xlink:href="#path-1"></use>
                    </mask>
                    <g id="Clip-6"></g>
                    <path d="M48.3491,41.4443 C48.3491,45.0593 45.4091,48.0003 41.7931,48.0003 L8.9051,48.0003 C5.2901,48.0003 2.3491,45.0593 2.3491,41.4443 L2.3491,8.5553 C2.3491,4.9413 5.2901,2.0003 8.9051,2.0003 L41.7931,2.0003 C45.4091,2.0003 48.3491,4.9413 48.3491,8.5553 L48.3491,41.4443 Z M41.7931,0.0003 L8.9051,0.0003 C4.1991,0.0003 0.3491,3.8503 0.3491,8.5553 L0.3491,41.4443 C0.3491,46.1503 4.1991,50.0003 8.9051,50.0003 L41.7931,50.0003 C46.4991,50.0003 50.3491,46.1503 50.3491,41.4443 L50.3491,8.5553 C50.3491,3.8503 46.4991,0.0003 41.7931,0.0003 L41.7931,0.0003 Z" id="Fill-5" fill="#1F374F" mask="url(#mask-2)"></path>
                </g>
                <g id="Group-10" transform="translate(66.000000, 8.000000)">
                    <mask id="mask-4" fill="white">
                        <use xlink:href="#path-3"></use>
                    </mask>
                    <g id="Clip-9"></g>
                    <path d="M8.6685,27.1812 C8.6685,29.7342 6.5915,31.8112 4.0385,31.8112 L2.6875,31.8112 L2.6875,2.1902 L4.0385,2.1902 C6.5915,2.1902 8.6685,4.2672 8.6685,6.8202 L8.6685,27.1812 Z M4.0385,0.1902 L0.6875,0.1902 L0.6875,33.8112 L4.0385,33.8112 C7.6995,33.8112 10.6685,30.8422 10.6685,27.1812 L10.6685,6.8202 C10.6685,3.1582 7.6995,0.1902 4.0385,0.1902 L4.0385,0.1902 Z" id="Fill-8" fill="#1F374F" mask="url(#mask-4)"></path>
                </g>
                <g id="Group-13" transform="translate(0.000000, 8.000000)">
                    <mask id="mask-6" fill="white">
                        <use xlink:href="#path-5"></use>
                    </mask>
                    <g id="Clip-12"></g>
                    <path d="M7.9819,31.8105 L6.6299,31.8105 C4.0769,31.8105 1.9999,29.7335 1.9999,27.1805 L1.9999,6.8195 C1.9999,4.2665 4.0769,2.1895 6.6299,2.1895 L7.9819,2.1895 L7.9819,31.8105 Z M-0.0001,6.8195 L-0.0001,27.1805 C-0.0001,30.8425 2.9679,33.8105 6.6299,33.8105 L9.9819,33.8105 L9.9819,0.1895 L6.6299,0.1895 C2.9679,0.1895 -0.0001,3.1575 -0.0001,6.8195 L-0.0001,6.8195 Z" id="Fill-11" fill="#1F374F" mask="url(#mask-6)"></path>
                </g>
            </g>
        </g>
    </g>
</svg>

<svg width="77" height="50" xmlns="http://www.w3.org/2000/svg" xmlns:xlink="http://www.w3.org/1999/xlink"><defs><path id="a" d="M.35 0h50v50h-50z"/><path id="c" d="M.688.19h9.98v33.621H.688z"/><path id="e" d="M0 .19h9.982v33.62H0z"/></defs><g fill="none" fill-rule="evenodd"><path d="M32.584 23.778a2.154 2.154 0 0 1-2.225-2.223 2.16 2.16 0 0 1 2.082-2.082 2.154 2.154 0 0 1 2.224 2.223 2.163 2.163 0 0 1-2.081 2.082m9.01-1.247a9.342 9.342 0 0 0-.005-1.848.511.511 0 0 0-.599-.447 3.249 3.249 0 0 1-3.056-5.278.511.511 0 0 0-.091-.74 9.042 9.042 0 0 0-1.597-.92.51.51 0 0 0-.686.292 3.249 3.249 0 0 1-6.096 0 .509.509 0 0 0-.685-.292 9.034 9.034 0 0 0-1.596.92.508.508 0 0 0-.09.74 3.252 3.252 0 0 1-3.058 5.278.51.51 0 0 0-.599.447 8.899 8.899 0 0 0-.003 1.848.51.51 0 0 0 .599.448 3.25 3.25 0 0 1 3.044 5.297.513.513 0 0 0 .087.743 9.153 9.153 0 0 0 1.604.929.51.51 0 0 0 .688-.296 3.25 3.25 0 0 1 6.116 0c.1.28.416.418.689.296a9.181 9.181 0 0 0 1.602-.93.51.51 0 0 0 .087-.742 3.25 3.25 0 0 1 3.044-5.297.512.512 0 0 0 .6-.448M47.162 32.547a1.455 1.455 0 1 1-.096-2.908 1.455 1.455 0 0 1 .096 2.908m5.682-2.394a2.196 2.196 0 0 1-2.067-3.566.344.344 0 0 0-.06-.5 6.27 6.27 0 0 0-1.078-.623.346.346 0 0 0-.464.198 2.197 2.197 0 0 1-4.12 0 .345.345 0 0 0-.463-.198 6.167 6.167 0 0 0-1.08.623.344.344 0 0 0-.06.5 2.194 2.194 0 0 1-2.066 3.566.347.347 0 0 0-.406.303 6.373 6.373 0 0 0-.002 1.248c.02.2.207.338.406.303a2.195 2.195 0 0 1 2.057 3.58.345.345 0 0 0 .059.502c.337.244.699.455 1.083.627a.345.345 0 0 0 .466-.199 2.194 2.194 0 0 1 4.133 0 .343.343 0 0 0 .464.2 6.14 6.14 0 0 0 1.084-.628.346.346 0 0 0 .059-.502 2.197 2.197 0 0 1 2.057-3.58.345.345 0 0 0 .405-.303 6.178 6.178 0 0 0-.003-1.248.345.345 0 0 0-.404-.303" fill="#1F374F"/><g transform="translate(13)"><mask id="b" fill="#fff"><use xlink:href="#a"/></mask><path d="M48.35 41.444A6.563 6.563 0 0 1 41.792 48H8.905a6.563 6.563 0 0 1-6.556-6.556V8.555A6.563 6.563 0 0 1 8.905 2h32.888a6.563 6.563 0 0 1 6.556 6.555v32.89zM41.792 0H8.905C4.2 0 .35 3.85.35 8.555v32.89C.35 46.15 4.2 50 8.905 50h32.888c4.706 0 8.556-3.85 8.556-8.556V8.555C50.35 3.85 46.5 0 41.793 0z" fill="#1F374F" mask="url(#b)"/></g><g transform="translate(66 8)"><mask id="d" fill="#fff"><use xlink:href="#c"/></mask><path d="M8.668 27.181a4.635 4.635 0 0 1-4.63 4.63h-1.35V2.191h1.35a4.635 4.635 0 0 1 4.63 4.63v20.36zM4.038.191H.688v33.62h3.35a6.63 6.63 0 0 0 6.63-6.63V6.821A6.63 6.63 0 0 0 4.038.19z" fill="#1F374F" mask="url(#d)"/></g><g transform="translate(0 8)"><mask id="f" fill="#fff"><use xlink:href="#e"/></mask><path d="M7.982 31.81H6.63A4.635 4.635 0 0 1 2 27.18V6.82a4.635 4.635 0 0 1 4.63-4.63h1.352v29.62zM0 6.82v20.36a6.63 6.63 0 0 0 6.63 6.63h3.352V.19H6.63A6.63 6.63 0 0 0 0 6.82z" fill="#1F374F" mask="url(#f)"/></g></g></svg>
